www/assets/icons/train.svg

<svg xmlns="http://www.w3.org/2000/svg" width="24" height="24" viewBox="0 0 24 24" fill='currentColor'><path d="M12 2.5c-4 0-8 .5-8 4V16c0 1.93 1.57 3.5 3.5 3.5L6 21v.5h2.23l2-2H14l2 2h2V21l-1.5-1.5c1.93 0 3.5-1.57 3.5-3.5V6.5c0-3.5-3.58-4-8-4m-4.5 15c-.83 0-1.5-.67-1.5-1.5s.67-1.5 1.5-1.5S9 15.17 9 16s-.67 1.5-1.5 1.5m3.5-7H6v-4h5zm2 0v-4h5v4zm3.5 7c-.83 0-1.5-.67-1.5-1.5s.67-1.5 1.5-1.5 1.5.67 1.5 1.5-.67 1.5-1.5 1.5"/></svg>

<svg width="24" height="24" viewBox="0 0 24 24" xmlns="http://www.w3.org/2000/svg" fill='currentColor'><path d="M12 2.5C8 2.5 4 3 4 6.5V16C4 17.93 5.57 19.5 7.5 19.5L6 21V21.5H8.23L10.23 19.5H14L16 21.5H18V21L16.5 19.5C18.43 19.5 20 17.93 20 16V6.5C20 3 16.42 2.5 12 2.5ZM7.5 17.5C6.67 17.5 6 16.83 6 16C6 15.17 6.67 14.5 7.5 14.5C8.33 14.5 9 15.17 9 16C9 16.83 8.33 17.5 7.5 17.5ZM11 10.5H6V6.5H11V10.5ZM13 10.5V6.5H18V10.5H13ZM16.5 17.5C15.67 17.5 15 16.83 15 16C15 15.17 15.67 14.5 16.5 14.5C17.33 14.5 18 15.17 18 16C18 16.83 17.33 17.5 16.5 17.5Z"/></svg>
